X:159
T:Contending Orators. JJo8.159
B:J.Johnson Choice Collection Vol 8 1758
Z:vmp.Simon Wilson 2013 www.village-music-project.org.uk
M:2/4
L:1/8
Q:1/2=100
K:C
|:G2E>G|G2E>G|c2e>g|g3g|a2f>a|g2e>g|f2d>f|e2dc|
G2E>G|G2E>G|c2e>g|g4|f2d>f|e2c>e|dcdB|c4:|
|:e2c>e|A2Bc|dedc|B2AG|d2B>d|g2A>e|dcBA|G3A|
G2E>G|g2e>g|F2D>F|f2d>f|e2c>e|A2f>e|dcdB|c4:|
